html/assets/images/dynamic/benefit-logo-9.svg

<svg width="48" height="46" fill="none" xmlns="http://www.w3.org/2000/svg"><path d="M18 16c-.97 5.32-7 7.49-7 13 0 3.73 3.27 7 7 7s7-3.27 7-7c0-5.51-6.02-7.68-7-13zm17 2c-.7 3.04-5 5.02-5 9 0 2.69 2.31 5 5 5s5-2.31 5-5c0-3.98-4.3-5.96-5-9zM27 7c-.55 2.01-4 5.1-4 8 0 1.96 1.87 4 4 4s4-2.04 4-4c0-2.9-3.45-5.99-4-8z" stroke="#00999A" stroke-width="2" stroke-linejoin="round"/><path d="M30.24 2.63C41.6 5.25 48.69 16.59 46.06 27.96c-.11.48-.24.95-.39 1.42M20.74 2.63c-7.61 1.76-13.95 7.7-15.82 15.83-.87 3.75-.67 7.49.38 10.92m4.75 8.23a20.96 20.96 0 0010.69 6.17c7.61 1.76 15.21-.85 20.19-6.18" stroke="#00999A" stroke-width="2" stroke-miterlimit="10"/><path d="M7.82 23.93L5.3 29.38 1 25.18m33.95 12.97l5.98-.55-1.48 5.82M33.7 7.53l-3.46-4.9L36.02 1" stroke="#00999A" stroke-width="2" stroke-miterlimit="10"/></svg>

<svg width="48" height="46" viewBox="0 0 48 46" fill="none" xmlns="http://www.w3.org/2000/svg">
<path d="M18 16C17.03 21.32 11 23.49 11 29C11 32.73 14.27 36 18 36C21.73 36 25 32.73 25 29C25 23.49 18.98 21.32 18 16Z" stroke="#00999A" stroke-width="2" stroke-linejoin="round"/>
<path d="M35 18C34.3 21.04 30 23.02 30 27C30 29.69 32.31 32 35 32C37.69 32 40 29.69 40 27C40 23.02 35.7 21.04 35 18Z" stroke="#00999A" stroke-width="2" stroke-linejoin="round"/>
<path d="M27 7C26.45 9.01 23 12.1 23 15C23 16.96 24.87 19 27 19C29.13 19 31 16.96 31 15C31 12.1 27.55 9.01 27 7Z" stroke="#00999A" stroke-width="2" stroke-linejoin="round"/>
<path d="M30.24 2.63C41.6 5.25 48.69 16.59 46.06 27.96C45.95 28.44 45.82 28.91 45.67 29.38" stroke="#00999A" stroke-width="2" stroke-miterlimit="10"/>
<path d="M20.7401 2.63C13.1301 4.39 6.79011 10.33 4.92011 18.46C4.05011 22.21 4.25011 25.95 5.30011 29.38" stroke="#00999A" stroke-width="2" stroke-miterlimit="10"/>
<path d="M10.05 37.61C12.82 40.59 16.48 42.8 20.74 43.78C28.35 45.54 35.95 42.93 40.93 37.6" stroke="#00999A" stroke-width="2" stroke-miterlimit="10"/>
<path d="M7.82 23.93L5.3 29.38L1 25.18" stroke="#00999A" stroke-width="2" stroke-miterlimit="10"/>
<path d="M34.95 38.15L40.93 37.6L39.45 43.42" stroke="#00999A" stroke-width="2" stroke-miterlimit="10"/>
<path d="M33.7 7.53L30.24 2.63L36.02 1" stroke="#00999A" stroke-width="2" stroke-miterlimit="10"/>
</svg>
